SVG_Azure_All/Application Customer Service Insights.svg

<?xml version="1.0" encoding="UTF-8" standalone="no"?>
<!-- Generated by Microsoft Visio, SVG Export Application Customer Service Insights.svg Page-1 -->

<svg
   xmlns:dc="http://purl.org/dc/elements/1.1/"
   xmlns:cc="http://creativecommons.org/ns#"
   xmlns:rdf="http://www.w3.org/1999/02/22-rdf-syntax-ns#"
   xmlns:svg="http://www.w3.org/2000/svg"
   xmlns="http://www.w3.org/2000/svg"
   xmlns:sodipodi="http://sodipodi.sourceforge.net/DTD/sodipodi-0.dtd"
   xmlns:inkscape="http://www.inkscape.org/namespaces/inkscape"
   width="0.7479912in"
   height="0.76723641in"
   viewBox="0 0 53.855335 55.241159"
   xml:space="preserve"
   class="st6"
   version="1.1"
   id="svg68"
   sodipodi:docname="Application Customer Service Insights.svg"
   style="font-size:12px;overflow:visible;color-interpolation-filters:sRGB;fill:none;fill-rule:evenodd;stroke-linecap:square;stroke-miterlimit:3"
   inkscape:version="0.92.5 (2060ec1f9f, 2020-04-08)"><metadata
   id="metadata72"><rdf:RDF><cc:Work
       rdf:about=""><dc:format>image/svg+xml</dc:format><dc:type
         rdf:resource="http://purl.org/dc/dcmitype/StillImage" /></cc:Work></rdf:RDF></metadata><sodipodi:namedview
   pagecolor="#ffffff"
   bordercolor="#666666"
   borderopacity="1"
   objecttolerance="10"
   gridtolerance="10"
   guidetolerance="10"
   inkscape:pageopacity="0"
   inkscape:pageshadow="2"
   inkscape:window-width="640"
   inkscape:window-height="480"
   id="namedview70"
   showgrid="false"
   inkscape:zoom="1.8365233"
   inkscape:cx="35.905404"
   inkscape:cy="17.930218"
   inkscape:window-x="0"
   inkscape:window-y="0"
   inkscape:window-maximized="0"
   inkscape:current-layer="svg68" />
	<style
   type="text/css"
   id="style2">
	<![CDATA[
		.st1 {fill:url(#grad0-7);stroke:none;stroke-linecap:butt;stroke-width:0.75}
		.st2 {fill:#000000;fill-opacity:0.32;stroke:none;stroke-linecap:butt;stroke-width:0.75}
		.st3 {fill:#000000;fill-opacity:0.24;stroke:none;stroke-linecap:butt;stroke-width:0.75}
		.st4 {fill:url(#grad0-15);stroke:none;stroke-linecap:butt;stroke-width:0.75}
		.st5 {fill:url(#grad0-23);stroke:none;stroke-linecap:butt;stroke-width:0.75}
		.st6 {fill:none;fill-rule:evenodd;font-size:12px;overflow:visible;stroke-linecap:square;stroke-miterlimit:3}
	]]>
	</style>

	<defs
   id="Patterns_And_Gradients">
		<linearGradient
   id="grad0-7"
   x1="0"
   y1="30.180537"
   x2="29.156056"
   y2="30.180537"
   gradientTransform="scale(0.61565255,1.6242928)"
   gradientUnits="userSpaceOnUse">
			<stop
   offset="0"
   stop-color="#158915"
   stop-opacity="1"
   id="stop4" />
			<stop
   offset="1"
   stop-color="#065f18"
   stop-opacity="1"
   id="stop6" />
		</linearGradient>
		<linearGradient
   id="grad0-15"
   x1="0"
   y1="37.089222"
   x2="26.99574"
   y2="37.089222"
   gradientTransform="scale(0.66491971,1.503941)"
   gradientUnits="userSpaceOnUse">
			<stop
   offset="0"
   stop-color="#6ad116"
   stop-opacity="1"
   id="stop9" />
			<stop
   offset="1"
   stop-color="#34a117"
   stop-opacity="1"
   id="stop11" />
		</linearGradient>
		<linearGradient
   id="grad0-23"
   x1="0"
   y1="36.613907"
   x2="26.993213"
   y2="36.613907"
   gradientTransform="scale(0.66498197,1.5038002)"
   gradientUnits="userSpaceOnUse">
			<stop
   offset="0"
   stop-color="#c3f488"
   stop-opacity="1"
   id="stop14" />
			<stop
   offset="1"
   stop-color="#8fdc50"
   stop-opacity="1"
   id="stop16" />
		</linearGradient>
	</defs>
	<g
   id="g66"
   transform="translate(-5.3859292,-6.3955391)">
		<title
   id="title20">Page-1</title>
		<g
   id="group9797-1"
   transform="translate(5.38583,-34.0157)">
			<title
   id="title22">Application Customer Service Insights</title>
			<g
   id="group9798-2">
				<title
   id="title24">Sheet.9798</title>
				<g
   id="group9799-3">
					<title
   id="title26">Sheet.9799</title>
					<g
   id="shape9800-4"
   transform="translate(35.9055,-8.61079)">
						<title
   id="title28">Sheet.9800</title>
						<path
   d="M 0,51.28 C 0,49.32 2.31,48.3 3.75,49.61 l 13.47,12.26 c 0.47,0.43 0.73,1.04 0.73,1.68 v 30.57 c 0,1.25 -1,2.26 -2.24,2.26 H 0 Z"
   class="st1"
   id="path30"
   inkscape:connector-curvature="0"
   style="fill:url(#grad0-7);stroke:none;stroke-width:0.75;stroke-linecap:butt" />
					</g>
					<g
   id="shape9801-8"
   transform="translate(17.9528,-7.48304)">
						<title
   id="title33">Sheet.9801</title>
						<path
   d="m 0,58.03 c 0,-1.24 1,-2.25 2.24,-2.25 h 15.71 v 40.6 H 0 Z"
   class="st2"
   id="path35"
   inkscape:connector-curvature="0"
   style="fill:#000000;fill-opacity:0.31999996;stroke:none;stroke-width:0.75;stroke-linecap:butt" />
					</g>
					<g
   id="shape9802-10"
   transform="translate(17.9528,-8.39652)">
						<title
   id="title38">Sheet.9802</title>
						<path
   d="m 0,58.03 c 0,-1.24 1,-2.25 2.24,-2.25 h 15.71 v 40.6 H 0 Z"
   class="st3"
   id="path40"
   inkscape:connector-curvature="0"
   style="fill:#000000;fill-opacity:0.23999999;stroke:none;stroke-width:0.75;stroke-linecap:butt" />
					</g>
					<g
   id="shape9803-12"
   transform="translate(17.9528,-8.61079)">
						<title
   id="title43">Sheet.9803</title>
						<path
   d="m 0,58.03 c 0,-1.24 1,-2.25 2.24,-2.25 h 15.71 v 40.6 H 0 Z"
   class="st4"
   id="path45"
   inkscape:connector-curvature="0"
   style="fill:url(#grad0-15);stroke:none;stroke-width:0.75;stroke-linecap:butt" />
					</g>
					<g
   id="shape9804-16">
						<title
   id="title48">Sheet.9804</title>
						<path
   d="m 0,57.32 c 0,-1.25 1,-2.26 2.24,-2.26 h 15.71 v 38.33 c 0,1.96 -2.31,2.99 -3.75,1.67 L 0.74,82.8 C 0.27,82.37 0,81.77 0,81.13 Z"
   class="st2"
   id="path50"
   inkscape:connector-curvature="0"
   style="fill:#000000;fill-opacity:0.31999996;stroke:none;stroke-width:0.75;stroke-linecap:butt" />
					</g>
					<g
   id="shape9805-18"
   transform="translate(0,-0.91348)">
						<title
   id="title53">Sheet.9805</title>
						<path
   d="m 0,57.32 c 0,-1.25 1,-2.26 2.24,-2.26 h 15.71 v 38.33 c 0,1.96 -2.31,2.99 -3.75,1.67 L 0.74,82.8 C 0.27,82.37 0,81.77 0,81.13 Z"
   class="st3"
   id="path55"
   inkscape:connector-curvature="0"
   style="fill:#000000;fill-opacity:0.23999999;stroke:none;stroke-width:0.75;stroke-linecap:butt" />
					</g>
					<g
   id="shape9806-20"
   transform="translate(0,-1.12775)">
						<title
   id="title58">Sheet.9806</title>
						<path
   d="m 0,57.32 c 0,-1.25 1,-2.26 2.24,-2.26 h 15.71 v 38.33 c 0,1.96 -2.31,2.99 -3.75,1.67 L 0.74,82.8 C 0.27,82.37 0,81.77 0,81.13 Z"
   class="st5"
   id="path60"
   inkscape:connector-curvature="0"
   style="fill:url(#grad0-23);stroke:none;stroke-width:0.75;stroke-linecap:butt" />
					</g>
				</g>
			</g>
		</g>
	</g>
</svg>

<?xml version="1.0" encoding="UTF-8" standalone="no"?>
<!DOCTYPE svg PUBLIC "-//W3C//DTD SVG 1.1//EN" "http://www.w3.org/Graphics/SVG/1.1/DTD/svg11.dtd">
<!-- Generated by Microsoft Visio, SVG Export Application Customer Service Insights.svg Page-1 -->
<svg xmlns="http://www.w3.org/2000/svg" xmlns:xlink="http://www.w3.org/1999/xlink" xmlns:ev="http://www.w3.org/2001/xml-events"
		width="0.897638in" height="1.33858in" viewBox="0 0 64.6299 96.378" xml:space="preserve" color-interpolation-filters="sRGB"
		class="st6">
	<style type="text/css">
	<![CDATA[
		.st1 {fill:url(#grad0-7);stroke:none;stroke-linecap:butt;stroke-width:0.75}
		.st2 {fill:#000000;fill-opacity:0.32;stroke:none;stroke-linecap:butt;stroke-width:0.75}
		.st3 {fill:#000000;fill-opacity:0.24;stroke:none;stroke-linecap:butt;stroke-width:0.75}
		.st4 {fill:url(#grad0-15);stroke:none;stroke-linecap:butt;stroke-width:0.75}
		.st5 {fill:url(#grad0-23);stroke:none;stroke-linecap:butt;stroke-width:0.75}
		.st6 {fill:none;fill-rule:evenodd;font-size:12px;overflow:visible;stroke-linecap:square;stroke-miterlimit:3}
	]]>
	</style>

	<defs id="Patterns_And_Gradients">
		<linearGradient id="grad0-7" x1="0" y1="0" x2="1" y2="0" gradientTransform="rotate(42.274551671407 0.5 0.5)">
			<stop offset="0" stop-color="#158915" stop-opacity="1"/>
			<stop offset="1" stop-color="#065f18" stop-opacity="1"/>
		</linearGradient>
		<linearGradient id="grad0-15" x1="0" y1="0" x2="1" y2="0" gradientTransform="rotate(42.920377975711 0.5 0.5)">
			<stop offset="0" stop-color="#6ad116" stop-opacity="1"/>
			<stop offset="1" stop-color="#34a117" stop-opacity="1"/>
		</linearGradient>
		<linearGradient id="grad0-23" x1="0" y1="0" x2="1" y2="0" gradientTransform="rotate(46.421628871777 0.5 0.5)">
			<stop offset="0" stop-color="#c3f488" stop-opacity="1"/>
			<stop offset="1" stop-color="#8fdc50" stop-opacity="1"/>
		</linearGradient>
	</defs>
	<g>
		<title>Page-1</title>
		<g id="group9592-1" transform="translate(5.38583,-34.0157)">
			<title>Application Customer Service Insights</title>
			<g id="group9593-2">
				<title>Sheet.9593</title>
				<g id="group9594-3">
					<title>Sheet.9594</title>
					<g id="shape9595-4" transform="translate(35.9055,-8.61079)">
						<title>Sheet.9595</title>
						<path d="M0 51.28 C0 49.32 2.31 48.3 3.75 49.61 L17.22 61.87 C17.69 62.3 17.95 62.91 17.95 63.55 L17.95 94.12
									 C17.95 95.37 16.95 96.38 15.71 96.38 L0 96.38 L0 51.28 Z" class="st1"/>
					</g>
					<g id="shape9596-8" transform="translate(17.9528,-7.48304)">
						<title>Sheet.9596</title>
						<path d="M0 58.03 C0 56.79 1 55.78 2.24 55.78 L17.95 55.78 L17.95 96.38 L0 96.38 L0 58.03 Z" class="st2"/>
					</g>
					<g id="shape9597-10" transform="translate(17.9528,-8.39652)">
						<title>Sheet.9597</title>
						<path d="M0 58.03 C0 56.79 1 55.78 2.24 55.78 L17.95 55.78 L17.95 96.38 L0 96.38 L0 58.03 Z" class="st3"/>
					</g>
					<g id="shape9598-12" transform="translate(17.9528,-8.61079)">
						<title>Sheet.9598</title>
						<path d="M0 58.03 C0 56.79 1 55.78 2.24 55.78 L17.95 55.78 L17.95 96.38 L0 96.38 L0 58.03 Z" class="st4"/>
					</g>
					<g id="shape9599-16">
						<title>Sheet.9599</title>
						<path d="M0 57.32 C0 56.07 1 55.06 2.24 55.06 L17.95 55.06 L17.95 93.39 C17.95 95.35 15.64 96.38 14.2 95.06
									 L0.74 82.8 C0.27 82.37 0 81.77 0 81.13 L0 57.32 Z" class="st2"/>
					</g>
					<g id="shape9600-18" transform="translate(2.73781E-13,-0.91348)">
						<title>Sheet.9600</title>
						<path d="M0 57.32 C0 56.07 1 55.06 2.24 55.06 L17.95 55.06 L17.95 93.39 C17.95 95.35 15.64 96.38 14.2 95.06
									 L0.74 82.8 C0.27 82.37 0 81.77 0 81.13 L0 57.32 Z" class="st3"/>
					</g>
					<g id="shape9601-20" transform="translate(2.73781E-13,-1.12775)">
						<title>Sheet.9601</title>
						<path d="M0 57.32 C0 56.07 1 55.06 2.24 55.06 L17.95 55.06 L17.95 93.39 C17.95 95.35 15.64 96.38 14.2 95.06
									 L0.74 82.8 C0.27 82.37 0 81.77 0 81.13 L0 57.32 Z" class="st5"/>
					</g>
				</g>
			</g>
		</g>
	</g>
</svg>
